X:7583
T:Tobin's Favourite
O:england
M:6/8
L:1/8
Q:1/4=190
C:Trad
R:jig
K:D
DFA dcd|ecA cde|fdf gfg|ecA GFE|
DFA dcd|ecA cde|faf gec|edc d2 z:|
dfa agf|efe efg|fdf gfg|ecA GFE|
DFA dcd|ecA cde|faf gec|edc d2 z:|


